packages/ui-solid/icons/close_28.svg

<svg width="28" height="28" viewBox="0 0 28 28" fill="none" xmlns="http://www.w3.org/2000/svg">
<g clip-path="url(#clip0_144_1740)">
<path d="M14 28C21.6589 28 28 21.6451 28 14C28 6.34117 21.6451 0 13.9863 0C6.34117 0 0 6.34117 0 14C0 21.6451 6.35489 28 14 28Z" fill="black" fill-opacity="0.04"/>
<path opacity="0.5" d="M9.17282 20C8.51489 20 8 19.4702 8 18.8115C8 18.4964 8.11441 18.1957 8.34326 17.9808L12.3051 14L8.34326 10.0334C8.11441 9.8043 8 9.51789 8 9.20286C8 8.52982 8.51489 8.02864 9.17282 8.02864C9.50178 8.02864 9.75923 8.14319 9.98807 8.35799L13.9785 12.3389L17.9976 8.34367C18.2407 8.10024 18.4982 8 18.8128 8C19.4707 8 20 8.51551 20 9.17422C20 9.50358 19.8998 9.76133 19.6423 10.0191L15.6663 14L19.6281 17.9666C19.8713 18.1814 19.9856 18.482 19.9856 18.8115C19.9856 19.4702 19.4565 20 18.7842 20C18.4553 20 18.1549 19.8855 17.9403 19.6563L13.9785 15.6754L10.031 19.6563C9.80214 19.8855 9.50178 20 9.17282 20Z" fill="black" fill-opacity="0.8"/>
</g>
<defs>
<clipPath id="clip0_144_1740">
<rect width="28" height="28" fill="white"/>
</clipPath>
</defs>
</svg>

<svg xmlns="http://www.w3.org/2000/svg" width="28" height="28" fill="none"><g fill="#000" clip-path="url(#a)"><path fill-opacity=".04" d="M14 28c7.659 0 14-6.355 14-14 0-7.659-6.355-14-14.014-14C6.341 0 0 6.341 0 14c0 7.645 6.355 14 14 14"/><path fill-opacity=".8" d="M9.173 20C8.515 20 8 19.47 8 18.811c0-.315.114-.615.343-.83L12.305 14l-3.962-3.967A1.15 1.15 0 0 1 8 9.203c0-.673.515-1.174 1.173-1.174.329 0 .586.114.815.329l3.99 3.98 4.02-3.994c.243-.244.5-.344.815-.344C19.47 8 20 8.516 20 9.174c0 .33-.1.587-.358.845L15.666 14l3.962 3.967c.243.214.358.515.358.845 0 .658-.53 1.188-1.202 1.188-.329 0-.63-.114-.844-.344l-3.962-3.98-3.947 3.98c-.229.23-.53.344-.858.344" opacity=".5"/></g><defs><clipPath id="a"><path fill="#fff" d="M0 0h28v28H0z"/></clipPath></defs></svg>
